Adwaita++-Light/panel/16/copyq-busy.svg

<svg height="16" width="16" xmlns="http://www.w3.org/2000/svg">
  <path d="m4.5 0c-1.933 0-3.5 1.567-3.5 3.5s1.567 3.5 3.5 3.5c.2604-.0011.5198-.0312.7734-.0898l1.7266 2.5898c-2.25 3.5 1 6.5 1 6.5s3.25-3 1-6.5l1.729-2.5898c.253.0584.511.0886.771.0898 1.933 0 3.5-1.567 3.5-3.5s-1.567-3.5-3.5-3.5-3.5 1.567-3.5 3.5c.001.8061.281 1.587.791 2.2109l-.791 1.2891-.789-1.2871c.51-.6247.789-1.4064.789-2.2129 0-1.933-1.567-3.5-3.5-3.5zm0 2c.8284 0 1.5.6716 1.5 1.5s-.6716 1.5-1.5 1.5-1.5-.6716-1.5-1.5.6716-1.5 1.5-1.5zm7 0c.828 0 1.5.6716 1.5 1.5s-.672 1.5-1.5 1.5-1.5-.6716-1.5-1.5.672-1.5 1.5-1.5z" fill="#444"/>
</svg>

<svg xmlns="http://www.w3.org/2000/svg" width="16" height="16" version="1.1">
 <defs>
  <style id="current-color-scheme" type="text/css">
   .ColorScheme-Text { color:#444444; } .ColorScheme-Highlight { color:#4285f4; }
  </style>
 </defs>
 <path style="fill:currentColor" class="ColorScheme-Text" d="M 4.5,0 C 2.567,0 1,1.567 1,3.5 1,5.433 2.567,7 4.5,7 4.7604,6.9989 5.0198,6.9688 5.2734,6.9102 L 7,9.5 C 4.75,13 8,16 8,16 8,16 11.25,13 9,9.5 L 10.729,6.9102 C 10.982,6.9686 11.24,6.9988 11.5,7 13.433,7 15,5.433 15,3.5 15,1.567 13.433,0 11.5,0 9.567,0 8,1.567 8,3.5 8.001,4.3061 8.281,5.087 8.791,5.7109 L 8,7 7.211,5.7129 C 7.721,5.0882 8,4.3065 8,3.5 8,1.567 6.433,0 4.5,0 Z M 4.5,2 C 5.3284,2 6,2.6716 6,3.5 6,4.3284 5.3284,5 4.5,5 3.6716,5 3,4.3284 3,3.5 3,2.6716 3.6716,2 4.5,2 Z M 11.5,2 C 12.328,2 13,2.6716 13,3.5 13,4.3284 12.328,5 11.5,5 10.672,5 10,4.3284 10,3.5 10,2.6716 10.672,2 11.5,2 Z"/>
</svg>
